X:6038
T:Silkesvalsen (the Silken Waltz)
O:england
R:Waltz
M:3/4
L:1/8
A:Älvdalen, Dalarna
K:Gm
D2|G2B2d2|g4g2|fg fe dc|B4A2|G^F GA Bc|d2 dB G2|
((3BcB) A^F AF|1 G4:|2 G4A2|: \
B2 Bd fd|d2 BG BG|A2 Ac =ec|c2 A^F AF|
G2 GA Bc|d2 dB G2|((3BcB) A^F AF|1 G4A2:|2 G6|]


